dist/svg/u1F68E.svg

<?xml version="1.0" encoding="UTF-8"?><svg id="Layer_1" xmlns="http://www.w3.org/2000/svg" viewBox="0 0 40 40"><g style="opacity:0;"><rect width="40" height="40" style="fill:none;"/></g><g><path d="M18,7.10742c-.15137,0-.30176-.06934-.40039-.2002C13.63086,1.6123,6.47168,1.55859,6.37305,1.55859h-.00195c-.27539,0-.49902-.22266-.5-.49805-.00098-.27637,.22168-.50098,.49805-.50195,.28027-.02734,7.74414,.0293,12.03125,5.74902,.16504,.2207,.12012,.53418-.10059,.7002-.08984,.06738-.19531,.09961-.2998,.09961Z" style="fill:#65778e;"/><ellipse cx="17.93164" cy="7.64819" rx="2.51142" ry="1.761" style="fill:#4592fb;"/><g><path d="M33.86633,7.68213H6.13367c-2.20914,0-4,1.79086-4,4V29.09033c0,1.10457,.89543,2,2,2h31.73267c1.10457,0,2-.89543,2-2V11.68213c0-2.20914-1.79086-4-4-4Z" style="fill:#93c9ff;"/><path d="M37.86633,23.46615H2.13367v5.62418c0,1.10457,.89543,2,2,2h31.73267c1.10457,0,2-.89543,2-2v-5.62418Z" style="fill:#64a7ff;"/><g><circle cx="8.37154" cy="30.80271" r="4.275" style="fill:#313d4c;"/><circle cx="8.37154" cy="30.80271" r="1.71" style="fill:#6b7683;"/></g><g><circle cx="31.23861" cy="30.80271" r="4.275" style="fill:#313d4c;"/><circle cx="31.23861" cy="30.80271" r="1.71" style="fill:#6b7683;"/></g><path d="M37.86632,27.70372c-.65591,0-1.1875-.53159-1.1875-1.1875s.53159-1.1875,1.1875-1.1875v2.375Z" style="fill:#fff;"/></g><path d="M6.1733,11.53208h11.69075v7.30991H6.1733c-.62875,0-1.13922-.51047-1.13922-1.13922v-5.03148c0-.62875,.51047-1.13922,1.13922-1.13922Z" style="fill:#313d4c;"/><path d="M19.27643,11.53208h11.69075c.62875,0,1.13922,.51047,1.13922,1.13922v5.03148c0,.62875-.51047,1.13922-1.13922,1.13922h-11.69075v-7.30991h0Z" style="fill:#313d4c;"/><path d="M35.31405,11.53208h2.55228v10.30991h-2.55228c-.62875,0-1.13922-.51047-1.13922-1.13922V12.6713c0-.62875,.51047-1.13922,1.13922-1.13922Z" style="fill:#313d4c;"/></g></svg>

<svg id="Layer_1" data-name="Layer 1" xmlns="http://www.w3.org/2000/svg" viewBox="0 0 40 40"><defs><style>.cls-1,.cls-2{fill:none;}.cls-1{opacity:0;}.cls-2{stroke:#65778e;stroke-linecap:round;stroke-linejoin:round;}.cls-3{fill:#4592fb;}.cls-4{fill:#93c9ff;}.cls-5{fill:#64a7ff;}.cls-6{fill:#313d4c;}.cls-7{fill:#6b7683;}.cls-8{fill:#fff;}</style></defs><rect class="cls-1" width="40" height="40"/><path class="cls-2" d="M6.372,1.058S13.818,1.028,18,6.608"/><ellipse class="cls-3" cx="17.932" cy="7.648" rx="2.511" ry="1.761"/><path class="cls-4" d="M33.866,7.682H6.134a4,4,0,0,0-4,4V29.09a2,2,0,0,0,2,2H35.866a2,2,0,0,0,2-2V11.682A4,4,0,0,0,33.866,7.682Z"/><path class="cls-5" d="M37.866,23.466H2.134V29.09a2,2,0,0,0,2,2H35.866a2,2,0,0,0,2-2Z"/><circle class="cls-6" cx="8.372" cy="30.803" r="4.275"/><circle class="cls-7" cx="8.372" cy="30.803" r="1.71"/><circle class="cls-6" cx="31.239" cy="30.803" r="4.275"/><circle class="cls-7" cx="31.239" cy="30.803" r="1.71"/><path class="cls-8" d="M37.866,27.7a1.188,1.188,0,0,1,0-2.375Z"/><path class="cls-6" d="M6.173,11.532H17.864a0,0,0,0,1,0,0v7.31a0,0,0,0,1,0,0H6.173A1.139,1.139,0,0,1,5.034,17.7V12.671A1.139,1.139,0,0,1,6.173,11.532Z"/><path class="cls-6" d="M19.276,11.532H30.967a1.139,1.139,0,0,1,1.139,1.139V17.7a1.139,1.139,0,0,1-1.139,1.139H19.276a0,0,0,0,1,0,0v-7.31A0,0,0,0,1,19.276,11.532Z"/><path class="cls-6" d="M35.314,11.532h2.552a0,0,0,0,1,0,0v10.31a0,0,0,0,1,0,0H35.314A1.139,1.139,0,0,1,34.175,20.7V12.671A1.139,1.139,0,0,1,35.314,11.532Z"/></svg>
